src/components/atoms/Icon/icons/linkedin-large.svg

<?xml version="1.0" encoding="UTF-8"?>
<svg width="36px" height="36px" viewBox="0 0 36 36" version="1.1" xmlns="http://www.w3.org/2000/svg" xmlns:xlink="http://www.w3.org/1999/xlink">
    <!-- Generator: Sketch 53.2 (72643) - https://sketchapp.com -->
    <title>linkedin</title>
    <desc>Created with Sketch.</desc>
    <defs>
        <polygon id="path-1" points="0 0 24 0 24 23.9186667 0 23.9186667"></polygon>
    </defs>
    <g id="linkedin" stroke="none" stroke-width="1" fill="none" fill-rule="evenodd">
        <g id="Group-3-Copy" transform="translate(6.000000, 6.000000)">
            <mask id="mask-2" fill="currentColor">
                <use xlink:href="#path-1"></use>
            </mask>
            <g id="Clip-2"></g>
            <path d="M20.4493333,20.452 L16.8933333,20.452 L16.8933333,14.8826667 C16.8933333,13.5533333 16.8666667,11.8453333 15.0426667,11.8453333 C13.1906667,11.8453333 12.908,13.292 12.908,14.7853333 L12.908,20.452 L9.352,20.452 L9.352,8.99866667 L12.764,8.99866667 L12.764,10.5626667 L12.812,10.5626667 C13.288,9.66266667 14.4493333,8.71333333 16.1813333,8.71333333 C19.784,8.71333333 20.4493333,11.0853333 20.4493333,14.1706667 L20.4493333,20.452 Z M5.33866667,7.432 C4.19466667,7.432 3.27333333,6.508 3.27333333,5.368 C3.27333333,4.22933333 4.19466667,3.30533333 5.33866667,3.30533333 C6.476,3.30533333 7.40266667,4.22933333 7.40266667,5.368 C7.40266667,6.508 6.476,7.432 5.33866667,7.432 Z M3.556,20.452 L7.12,20.452 L7.12,8.99866667 L3.556,8.99866667 L3.556,20.452 Z M22.2226667,0 L1.76933333,0 C0.793333333,0 0,0.776 0,1.72933333 L0,22.2693333 C0,23.2266667 0.793333333,24 1.76933333,24 L22.2226667,24 C23.2,24 24,23.2266667 24,22.2693333 L24,1.72933333 C24,0.776 23.2,0 22.2226667,0 L22.2226667,0 Z" id="Fill-1" fill="currentColor" mask="url(#mask-2)"></path>
        </g>
    </g>
</svg>

<svg width="36" height="36" xmlns="http://www.w3.org/2000/svg" xmlns:xlink="http://www.w3.org/1999/xlink"><defs><path id="linkedin-large-a" d="M0 0h24v23.919H0z"/></defs><g transform="translate(6 6)" fill="currentColor" fill-rule="evenodd"><mask id="linkedin-large-b"><use xlink:href="#linkedin-large-a"/></mask><path d="M20.45 20.452h-3.557v-5.57c0-1.329-.026-3.037-1.85-3.037-1.852 0-2.135 1.447-2.135 2.94v5.667H9.352V8.999h3.412v1.564h.048c.476-.9 1.637-1.85 3.37-1.85 3.602 0 4.267 2.372 4.267 5.458v6.281zM5.338 7.432a2.062 2.062 0 1 1 0-4.127c1.137 0 2.064.924 2.064 2.063 0 1.14-.927 2.064-2.064 2.064zm-1.783 13.02H7.12V8.999H3.556v11.453zM22.223 0H1.769C.793 0 0 .776 0 1.73v20.54C0 23.226.793 24 1.77 24h20.453C23.2 24 24 23.227 24 22.27V1.73C24 .775 23.2 0 22.223 0z" mask="url(#linkedin-large-b)"/></g></svg>
